images/6604788.svg

<?xml version="1.0" encoding="UTF-8"?>
<svg xmlns="http://www.w3.org/2000/svg" xmlns:xlink="http://www.w3.org/1999/xlink" width="300pt" height="300pt" viewBox="0 0 300 300" version="1.1">
<defs>
<g>
<symbol overflow="visible" id="glyph0-0">
<path style="stroke:none;" d="M 0.59375 2.125 L 0.59375 -8.46875 L 6.59375 -8.46875 L 6.59375 2.125 Z M 1.265625 1.453125 L 5.9375 1.453125 L 5.9375 -7.78125 L 1.265625 -7.78125 Z M 1.265625 1.453125 "/>
</symbol>
<symbol overflow="visible" id="glyph0-1">
<path style="stroke:none;" d="M 6.421875 -8.46875 L 6.421875 -7.3125 C 5.972656 -7.519531 5.546875 -7.675781 5.140625 -7.78125 C 4.742188 -7.894531 4.363281 -7.953125 4 -7.953125 C 3.351562 -7.953125 2.851562 -7.828125 2.5 -7.578125 C 2.15625 -7.328125 1.984375 -6.96875 1.984375 -6.5 C 1.984375 -6.113281 2.097656 -5.820312 2.328125 -5.625 C 2.554688 -5.425781 3 -5.269531 3.65625 -5.15625 L 4.359375 -5 C 5.242188 -4.832031 5.894531 -4.535156 6.3125 -4.109375 C 6.738281 -3.691406 6.953125 -3.128906 6.953125 -2.421875 C 6.953125 -1.566406 6.664062 -0.921875 6.09375 -0.484375 C 5.53125 -0.046875 4.695312 0.171875 3.59375 0.171875 C 3.1875 0.171875 2.75 0.125 2.28125 0.03125 C 1.8125 -0.0625 1.328125 -0.203125 0.828125 -0.390625 L 0.828125 -1.609375 C 1.304688 -1.335938 1.773438 -1.132812 2.234375 -1 C 2.703125 -0.863281 3.15625 -0.796875 3.59375 -0.796875 C 4.269531 -0.796875 4.789062 -0.925781 5.15625 -1.1875 C 5.53125 -1.457031 5.71875 -1.835938 5.71875 -2.328125 C 5.71875 -2.753906 5.582031 -3.085938 5.3125 -3.328125 C 5.050781 -3.578125 4.617188 -3.757812 4.015625 -3.875 L 3.296875 -4.015625 C 2.410156 -4.191406 1.769531 -4.46875 1.375 -4.84375 C 0.988281 -5.21875 0.796875 -5.738281 0.796875 -6.40625 C 0.796875 -7.1875 1.066406 -7.796875 1.609375 -8.234375 C 2.148438 -8.679688 2.898438 -8.90625 3.859375 -8.90625 C 4.273438 -8.90625 4.691406 -8.867188 5.109375 -8.796875 C 5.535156 -8.722656 5.972656 -8.613281 6.421875 -8.46875 Z M 6.421875 -8.46875 "/>
</symbol>
<symbol overflow="visible" id="glyph0-2">
<path style="stroke:none;" d="M 4.734375 -7.953125 C 3.867188 -7.953125 3.179688 -7.628906 2.671875 -6.984375 C 2.171875 -6.347656 1.921875 -5.472656 1.921875 -4.359375 C 1.921875 -3.265625 2.171875 -2.394531 2.671875 -1.75 C 3.179688 -1.113281 3.867188 -0.796875 4.734375 -0.796875 C 5.585938 -0.796875 6.265625 -1.113281 6.765625 -1.75 C 7.273438 -2.394531 7.53125 -3.265625 7.53125 -4.359375 C 7.53125 -5.472656 7.273438 -6.347656 6.765625 -6.984375 C 6.265625 -7.628906 5.585938 -7.953125 4.734375 -7.953125 Z M 4.734375 -8.90625 C 5.953125 -8.90625 6.925781 -8.492188 7.65625 -7.671875 C 8.394531 -6.847656 8.765625 -5.742188 8.765625 -4.359375 C 8.765625 -2.984375 8.394531 -1.882812 7.65625 -1.0625 C 6.925781 -0.238281 5.953125 0.171875 4.734375 0.171875 C 3.503906 0.171875 2.519531 -0.238281 1.78125 -1.0625 C 1.039062 -1.882812 0.671875 -2.984375 0.671875 -4.359375 C 0.671875 -5.742188 1.039062 -6.847656 1.78125 -7.671875 C 2.519531 -8.492188 3.503906 -8.90625 4.734375 -8.90625 Z M 4.734375 -8.90625 "/>
</symbol>
<symbol overflow="visible" id="glyph0-3">
<path style="stroke:none;" d="M 1.171875 -8.75 L 2.765625 -8.75 L 6.65625 -1.4375 L 6.65625 -8.75 L 7.796875 -8.75 L 7.796875 0 L 6.203125 0 L 2.328125 -7.3125 L 2.328125 0 L 1.171875 0 Z M 1.171875 -8.75 "/>
</symbol>
</g>
</defs>
<g id="surface50749">
<rect x="0" y="0" width="300" height="300" style="fill:rgb(100%,100%,100%);fill-opacity:1;stroke:none;"/>
<path style="fill:none;stroke-width:1.2;stroke-linecap:butt;stroke-linejoin:miter;stroke:rgb(0%,0%,0%);stroke-opacity:1;stroke-miterlimit:10;" d="M 110.109375 224.53125 L 81.421875 214.699219 "/>
<path style="fill:none;stroke-width:1.2;stroke-linecap:butt;stroke-linejoin:miter;stroke:rgb(0%,0%,0%);stroke-opacity:1;stroke-miterlimit:10;" d="M 81.421875 214.699219 L 78.507812 199.820312 "/>
<path style="fill:none;stroke-width:1.2;stroke-linecap:butt;stroke-linejoin:miter;stroke:rgb(80%,80%,0%);stroke-opacity:1;stroke-miterlimit:10;" d="M 78.507812 199.820312 L 75.59375 184.9375 "/>
<path style="fill:none;stroke-width:1.2;stroke-linecap:butt;stroke-linejoin:miter;stroke:rgb(80%,80%,0%);stroke-opacity:1;stroke-miterlimit:10;" d="M 76.28125 188.441406 L 91.160156 185.527344 "/>
<path style="fill:none;stroke-width:1.2;stroke-linecap:butt;stroke-linejoin:miter;stroke:rgb(100%,0%,0%);stroke-opacity:1;stroke-miterlimit:10;" d="M 91.160156 185.527344 L 106.039062 182.613281 "/>
<path style="fill:none;stroke-width:1.2;stroke-linecap:butt;stroke-linejoin:miter;stroke:rgb(80%,80%,0%);stroke-opacity:1;stroke-miterlimit:10;" d="M 74.910156 181.4375 L 89.789062 178.523438 "/>
<path style="fill:none;stroke-width:1.2;stroke-linecap:butt;stroke-linejoin:miter;stroke:rgb(100%,0%,0%);stroke-opacity:1;stroke-miterlimit:10;" d="M 89.789062 178.523438 L 104.667969 175.609375 "/>
<path style="fill:none;stroke-width:1.2;stroke-linecap:butt;stroke-linejoin:miter;stroke:rgb(80%,80%,0%);stroke-opacity:1;stroke-miterlimit:10;" d="M 74.910156 181.4375 L 60.027344 184.351562 "/>
<path style="fill:none;stroke-width:1.2;stroke-linecap:butt;stroke-linejoin:miter;stroke:rgb(100%,0%,0%);stroke-opacity:1;stroke-miterlimit:10;" d="M 60.027344 184.351562 L 45.148438 187.265625 "/>
<path style="fill:none;stroke-width:1.2;stroke-linecap:butt;stroke-linejoin:miter;stroke:rgb(80%,80%,0%);stroke-opacity:1;stroke-miterlimit:10;" d="M 76.28125 188.441406 L 61.398438 191.355469 "/>
<path style="fill:none;stroke-width:1.2;stroke-linecap:butt;stroke-linejoin:miter;stroke:rgb(100%,0%,0%);stroke-opacity:1;stroke-miterlimit:10;" d="M 61.398438 191.355469 L 46.519531 194.269531 "/>
<path style="fill:none;stroke-width:1.2;stroke-linecap:butt;stroke-linejoin:miter;stroke:rgb(80%,80%,0%);stroke-opacity:1;stroke-miterlimit:10;" d="M 75.59375 184.9375 L 72.679688 170.058594 "/>
<path style="fill:none;stroke-width:1.2;stroke-linecap:butt;stroke-linejoin:miter;stroke:rgb(0%,0%,100%);stroke-opacity:1;stroke-miterlimit:10;" d="M 72.679688 170.058594 L 69.765625 155.179688 "/>
<path style=" stroke:none;fill-rule:nonzero;fill:rgb(100%,100%,100%);fill-opacity:1;" d="M 71.59375 177.9375 L 79.59375 177.9375 L 79.59375 191.9375 L 71.59375 191.9375 Z M 71.59375 177.9375 "/>
<g style="fill:rgb(80%,80%,0%);fill-opacity:1;">
  <use xlink:href="#glyph0-1" x="71.59375" y="189.076172"/>
</g>
<path style=" stroke:none;fill-rule:nonzero;fill:rgb(100%,100%,100%);fill-opacity:1;" d="M 100.355469 172.109375 L 110.355469 172.109375 L 110.355469 186.109375 L 100.355469 186.109375 Z M 100.355469 172.109375 "/>
<g style="fill:rgb(100%,0%,0%);fill-opacity:1;">
  <use xlink:href="#glyph0-2" x="100.355469" y="183.248047"/>
</g>
<path style=" stroke:none;fill-rule:nonzero;fill:rgb(100%,100%,100%);fill-opacity:1;" d="M 35.835938 183.769531 L 45.835938 183.769531 L 45.835938 197.769531 L 35.835938 197.769531 Z M 35.835938 183.769531 "/>
<g style="fill:rgb(100%,0%,0%);fill-opacity:1;">
  <use xlink:href="#glyph0-2" x="35.835938" y="194.908203"/>
</g>
<path style="fill:none;stroke-width:1.2;stroke-linecap:butt;stroke-linejoin:miter;stroke:rgb(0%,0%,100%);stroke-opacity:1;stroke-miterlimit:10;" d="M 69.765625 155.179688 L 55.421875 150.261719 "/>
<path style="fill:none;stroke-width:1.2;stroke-linecap:butt;stroke-linejoin:miter;stroke:rgb(0%,0%,0%);stroke-opacity:1;stroke-miterlimit:10;" d="M 55.421875 150.261719 L 41.078125 145.347656 "/>
<path style="fill:none;stroke-width:1.2;stroke-linecap:butt;stroke-linejoin:miter;stroke:rgb(0%,0%,0%);stroke-opacity:1;stroke-miterlimit:10;" d="M 92.625 135.25 L 81.195312 145.214844 "/>
<path style="fill:none;stroke-width:1.2;stroke-linecap:butt;stroke-linejoin:miter;stroke:rgb(0%,0%,100%);stroke-opacity:1;stroke-miterlimit:10;" d="M 81.195312 145.214844 L 69.765625 155.179688 "/>
<path style=" stroke:none;fill-rule:nonzero;fill:rgb(100%,100%,100%);fill-opacity:1;" d="M 65.765625 148.179688 L 74.765625 148.179688 L 74.765625 162.179688 L 65.765625 162.179688 Z M 65.765625 148.179688 "/>
<g style="fill:rgb(0%,0%,100%);fill-opacity:1;">
  <use xlink:href="#glyph0-3" x="65.765625" y="159.318359"/>
</g>
<path style="fill:none;stroke-width:1.2;stroke-linecap:butt;stroke-linejoin:miter;stroke:rgb(0%,0%,0%);stroke-opacity:1;stroke-miterlimit:10;" d="M 41.078125 145.347656 L 35.25 115.585938 "/>
<path style="fill:none;stroke-width:1.2;stroke-linecap:butt;stroke-linejoin:miter;stroke:rgb(0%,0%,0%);stroke-opacity:1;stroke-miterlimit:10;" d="M 35.25 115.585938 L 58.109375 95.660156 "/>
<path style=" stroke:none;fill-rule:nonzero;fill:rgb(0%,0%,0%);fill-opacity:1;" d="M 86.796875 105.492188 L 59.84375 90.597656 L 56.375 100.722656 Z M 86.796875 105.492188 "/>
<path style="fill:none;stroke-width:1.2;stroke-linecap:butt;stroke-linejoin:miter;stroke:rgb(0%,0%,0%);stroke-opacity:1;stroke-miterlimit:10;" d="M 86.796875 105.492188 L 92.625 135.25 "/>
<path style="fill:none;stroke-width:1.2;stroke-linecap:butt;stroke-linejoin:miter;stroke:rgb(0%,0%,0%);stroke-opacity:1;stroke-miterlimit:10;" d="M 109.65625 85.5625 L 86.796875 105.492188 "/>
<path style="fill:none;stroke-width:1;stroke-linecap:butt;stroke-linejoin:miter;stroke:rgb(0%,0%,0%);stroke-opacity:1;stroke-miterlimit:10;" d="M 92.625 135.25 L 92.625 135.25 M 95.25 136.703125 L 95.589844 135.714844 M 97.875 138.152344 L 98.550781 136.179688 M 100.503906 139.605469 L 101.515625 136.644531 M 103.128906 141.054688 L 104.480469 137.109375 M 105.753906 142.507812 L 107.445312 137.574219 M 108.378906 143.957031 L 110.40625 138.039062 M 111.003906 145.410156 L 113.371094 138.503906 M 113.628906 146.859375 L 116.335938 138.96875 M 116.257812 148.3125 L 119.300781 139.433594 M 118.882812 149.761719 L 122.261719 139.898438 M 119.578125 150.144531 L 123.046875 140.019531 "/>
<path style="fill:none;stroke-width:1;stroke-linecap:butt;stroke-linejoin:miter;stroke:rgb(0%,0%,0%);stroke-opacity:1;stroke-miterlimit:10;" d="M 144.171875 125.15625 L 144.171875 125.15625 M 141.601562 126.703125 L 142.289062 127.492188 M 139.03125 128.253906 L 140.402344 129.824219 M 136.460938 129.800781 L 138.519531 132.160156 M 133.894531 131.347656 L 136.632812 134.492188 M 131.324219 132.898438 L 134.75 136.828125 M 128.753906 134.445312 L 132.867188 139.164062 M 126.183594 135.996094 L 130.980469 141.496094 M 123.613281 137.542969 L 129.097656 143.832031 M 121.046875 139.089844 L 127.210938 146.164062 M 118.476562 140.640625 L 125.328125 148.5 M 117.796875 141.050781 L 124.828125 149.117188 "/>
<path style="fill:none;stroke-width:1.2;stroke-linecap:butt;stroke-linejoin:miter;stroke:rgb(0%,0%,0%);stroke-opacity:1;stroke-miterlimit:10;" d="M 144.171875 125.15625 L 172.859375 134.988281 "/>
<path style="fill:none;stroke-width:1.2;stroke-linecap:butt;stroke-linejoin:miter;stroke:rgb(0%,0%,100%);stroke-opacity:1;stroke-miterlimit:10;" d="M 138.34375 95.394531 L 141.257812 110.277344 "/>
<path style="fill:none;stroke-width:1.2;stroke-linecap:butt;stroke-linejoin:miter;stroke:rgb(0%,0%,0%);stroke-opacity:1;stroke-miterlimit:10;" d="M 141.257812 110.277344 L 144.171875 125.15625 "/>
<path style="fill:none;stroke-width:1.2;stroke-linecap:butt;stroke-linejoin:miter;stroke:rgb(0%,0%,0%);stroke-opacity:1;stroke-miterlimit:10;" d="M 172.859375 134.988281 L 195.71875 115.0625 "/>
<path style="fill:none;stroke-width:1.2;stroke-linecap:butt;stroke-linejoin:miter;stroke:rgb(0%,0%,0%);stroke-opacity:1;stroke-miterlimit:10;" d="M 179.832031 138.375 L 198.121094 122.433594 "/>
<path style="fill:none;stroke-width:1.2;stroke-linecap:butt;stroke-linejoin:miter;stroke:rgb(0%,0%,0%);stroke-opacity:1;stroke-miterlimit:10;" d="M 178.6875 164.75 L 172.859375 134.988281 "/>
<path style="fill:none;stroke-width:1.2;stroke-linecap:butt;stroke-linejoin:miter;stroke:rgb(0%,0%,0%);stroke-opacity:1;stroke-miterlimit:10;" d="M 195.71875 115.0625 L 189.890625 85.300781 "/>
<path style="fill:none;stroke-width:1.2;stroke-linecap:butt;stroke-linejoin:miter;stroke:rgb(0%,0%,0%);stroke-opacity:1;stroke-miterlimit:10;" d="M 195.71875 115.0625 L 224.40625 124.894531 "/>
<path style="fill:none;stroke-width:1.2;stroke-linecap:butt;stroke-linejoin:miter;stroke:rgb(0%,0%,0%);stroke-opacity:1;stroke-miterlimit:10;" d="M 189.890625 85.300781 L 161.203125 75.46875 "/>
<path style="fill:none;stroke-width:1.2;stroke-linecap:butt;stroke-linejoin:miter;stroke:rgb(0%,0%,0%);stroke-opacity:1;stroke-miterlimit:10;" d="M 161.203125 75.46875 L 149.773438 85.429688 "/>
<path style="fill:none;stroke-width:1.2;stroke-linecap:butt;stroke-linejoin:miter;stroke:rgb(0%,0%,100%);stroke-opacity:1;stroke-miterlimit:10;" d="M 149.773438 85.429688 L 138.34375 95.394531 "/>
<path style="fill:none;stroke-width:1.2;stroke-linecap:butt;stroke-linejoin:miter;stroke:rgb(0%,0%,100%);stroke-opacity:1;stroke-miterlimit:10;" d="M 138.34375 95.394531 L 124 90.480469 "/>
<path style="fill:none;stroke-width:1.2;stroke-linecap:butt;stroke-linejoin:miter;stroke:rgb(0%,0%,0%);stroke-opacity:1;stroke-miterlimit:10;" d="M 124 90.480469 L 109.65625 85.5625 "/>
<path style=" stroke:none;fill-rule:nonzero;fill:rgb(100%,100%,100%);fill-opacity:1;" d="M 134.34375 88.394531 L 143.34375 88.394531 L 143.34375 102.394531 L 134.34375 102.394531 Z M 134.34375 88.394531 "/>
<g style="fill:rgb(0%,0%,100%);fill-opacity:1;">
  <use xlink:href="#glyph0-3" x="134.34375" y="99.533203"/>
</g>
<path style="fill:none;stroke-width:1.2;stroke-linecap:butt;stroke-linejoin:miter;stroke:rgb(0%,0%,0%);stroke-opacity:1;stroke-miterlimit:10;" d="M 224.40625 124.894531 L 230.234375 154.652344 "/>
<path style="fill:none;stroke-width:1.2;stroke-linecap:butt;stroke-linejoin:miter;stroke:rgb(0%,0%,0%);stroke-opacity:1;stroke-miterlimit:10;" d="M 217.984375 129.242188 L 222.648438 153.050781 "/>
<path style="fill:none;stroke-width:1.2;stroke-linecap:butt;stroke-linejoin:miter;stroke:rgb(0%,0%,0%);stroke-opacity:1;stroke-miterlimit:10;" d="M 230.234375 154.652344 L 207.375 174.582031 "/>
<path style="fill:none;stroke-width:1.2;stroke-linecap:butt;stroke-linejoin:miter;stroke:rgb(0%,0%,0%);stroke-opacity:1;stroke-miterlimit:10;" d="M 230.234375 154.652344 L 244.578125 159.570312 "/>
<path style="fill:none;stroke-width:1.2;stroke-linecap:butt;stroke-linejoin:miter;stroke:rgb(100%,0%,0%);stroke-opacity:1;stroke-miterlimit:10;" d="M 244.578125 159.570312 L 258.921875 164.484375 "/>
<path style="fill:none;stroke-width:1.2;stroke-linecap:butt;stroke-linejoin:miter;stroke:rgb(0%,0%,0%);stroke-opacity:1;stroke-miterlimit:10;" d="M 207.375 174.582031 L 178.6875 164.75 "/>
<path style="fill:none;stroke-width:1.2;stroke-linecap:butt;stroke-linejoin:miter;stroke:rgb(0%,0%,0%);stroke-opacity:1;stroke-miterlimit:10;" d="M 206.820312 166.847656 L 183.871094 158.980469 "/>
<path style="fill:none;stroke-width:1.2;stroke-linecap:butt;stroke-linejoin:miter;stroke:rgb(100%,0%,0%);stroke-opacity:1;stroke-miterlimit:10;" d="M 258.921875 164.484375 L 261.835938 179.367188 "/>
<path style="fill:none;stroke-width:1.2;stroke-linecap:butt;stroke-linejoin:miter;stroke:rgb(0%,0%,0%);stroke-opacity:1;stroke-miterlimit:10;" d="M 261.835938 179.367188 L 264.75 194.246094 "/>
<path style=" stroke:none;fill-rule:nonzero;fill:rgb(100%,100%,100%);fill-opacity:1;" d="M 253.921875 157.484375 L 263.921875 157.484375 L 263.921875 171.484375 L 253.921875 171.484375 Z M 253.921875 157.484375 "/>
<g style="fill:rgb(100%,0%,0%);fill-opacity:1;">
  <use xlink:href="#glyph0-2" x="253.921875" y="168.623047"/>
</g>
</g>
</svg>

<svg xmlns="http://www.w3.org/2000/svg" xmlns:xlink="http://www.w3.org/1999/xlink" width="300pt" height="300pt" viewBox="0 0 300 300"><defs><symbol overflow="visible"><path d="M.594 2.125V-8.47h6V2.126zm.672-.672h4.671V-7.78h-4.67zm0 0"/></symbol><symbol overflow="visible" id="a"><path d="M6.422-8.47v1.158c-.45-.208-.875-.364-1.28-.47-.4-.113-.78-.17-1.142-.17-.648 0-1.148.124-1.5.374-.344.25-.516.61-.516 1.078 0 .387.114.68.344.875.227.2.672.355 1.328.47L4.36-5c.882.168 1.535.465 1.952.89.426.42.64.98.64 1.688 0 .856-.288 1.5-.858 1.938-.563.437-1.4.656-2.5.656-.406 0-.844-.047-1.313-.14C1.814-.064 1.33-.204.83-.392v-1.22c.477.274.945.477 1.406.61.47.137.922.203 1.36.203.676 0 1.195-.13 1.562-.39.375-.27.563-.65.563-1.14 0-.427-.138-.76-.407-1-.262-.25-.696-.43-1.297-.548l-.72-.14c-.886-.176-1.526-.454-1.92-.83-.388-.374-.58-.893-.58-1.56 0-.782.27-1.392.813-1.83.538-.445 1.288-.67 2.25-.67.413 0 .83.038 1.25.108.425.074.863.184 1.312.328zm0 0"/></symbol><symbol overflow="visible" id="b"><path d="M4.734-7.953c-.867 0-1.554.324-2.062.97-.5.635-.75 1.51-.75 2.624 0 1.094.25 1.965.75 2.61.508.637 1.195.953 2.062.953.852 0 1.532-.316 2.032-.953.507-.645.765-1.516.765-2.61 0-1.113-.257-1.988-.764-2.624-.5-.645-1.18-.97-2.032-.97zm0-.953c1.22 0 2.192.414 2.922 1.234.74.824 1.11 1.93 1.11 3.313 0 1.376-.37 2.477-1.11 3.298C6.926-.24 5.953.17 4.734.17c-1.23 0-2.214-.41-2.953-1.234C1.04-1.882.673-2.984.673-4.36c0-1.382.367-2.488 1.11-3.312.738-.82 1.722-1.234 2.952-1.234zm0 0"/></symbol><symbol overflow="visible" id="c"><path d="M1.172-8.75h1.594l3.89 7.313V-8.75h1.14V0H6.204L2.328-7.313V0H1.172zm0 0"/></symbol></defs><g><path fill="#fff" d="M0 0h300v300H0z"/><path d="M110.11 224.53L81.42 214.7M81.422 214.7l-2.914-14.88" stroke-width="1.2" stroke="#000" stroke-miterlimit="10" fill="none"/><path d="M78.508 199.82l-2.914-14.882M76.28 188.44l14.88-2.913" stroke-width="1.2" stroke="#cc0" stroke-miterlimit="10" fill="none"/><path d="M91.16 185.527l14.88-2.914" stroke-width="1.2" stroke="#f00" stroke-miterlimit="10" fill="none"/><path d="M74.91 181.438l14.88-2.915" stroke-width="1.2" stroke="#cc0" stroke-miterlimit="10" fill="none"/><path d="M89.79 178.523l14.878-2.914" stroke-width="1.2" stroke="#f00" stroke-miterlimit="10" fill="none"/><path d="M74.91 181.438l-14.883 2.914" stroke-width="1.2" stroke="#cc0" stroke-miterlimit="10" fill="none"/><path d="M60.027 184.352l-14.88 2.914" stroke-width="1.2" stroke="#f00" stroke-miterlimit="10" fill="none"/><path d="M76.28 188.44L61.4 191.356" stroke-width="1.2" stroke="#cc0" stroke-miterlimit="10" fill="none"/><path d="M61.398 191.355L46.52 194.27" stroke-width="1.2" stroke="#f00" stroke-miterlimit="10" fill="none"/><path d="M75.594 184.938l-2.914-14.88" stroke-width="1.2" stroke="#cc0" stroke-miterlimit="10" fill="none"/><path d="M72.68 170.06l-2.914-14.88" stroke-width="1.2" stroke="#00f" stroke-miterlimit="10" fill="none"/><path d="M71.594 177.938h8v14h-8zm0 0" fill="#fff"/><use xlink:href="#a" x="71.594" y="189.076" fill="#cc0"/><path d="M100.355 172.11h10v14h-10zm0 0" fill="#fff"/><use xlink:href="#b" x="100.355" y="183.248" fill="#f00"/><path d="M35.836 183.77h10v14h-10zm0 0" fill="#fff"/><use xlink:href="#b" x="35.836" y="194.908" fill="#f00"/><path d="M69.766 155.18l-14.344-4.918" stroke-width="1.2" stroke="#00f" stroke-miterlimit="10" fill="none"/><path d="M55.422 150.262l-14.344-4.914M92.625 135.25l-11.43 9.965" stroke-width="1.2" stroke="#000" stroke-miterlimit="10" fill="none"/><path d="M81.195 145.215l-11.43 9.965" stroke-width="1.2" stroke="#00f" stroke-miterlimit="10" fill="none"/><path d="M65.766 148.18h9v14h-9zm0 0" fill="#fff"/><use xlink:href="#c" x="65.766" y="159.318" fill="#00f"/><path d="M41.078 145.348l-5.828-29.762M35.25 115.586L58.11 95.66" stroke-width="1.2" stroke="#000" stroke-miterlimit="10" fill="none"/><path d="M86.797 105.492L59.844 90.598l-3.47 10.125zm0 0"/><path d="M86.797 105.492l5.828 29.758M109.656 85.563l-22.86 19.93" stroke-width="1.2" stroke="#000" stroke-miterlimit="10" fill="none"/><path d="M92.625 135.25m2.625 1.453l.34-.988m2.285 2.437l.676-1.972m1.954 3.425l1.012-2.96m1.613 4.41l1.35-3.946m1.274 5.398l1.69-4.934m.935 6.383l2.026-5.918m.598 7.37l2.367-6.906m.26 8.355l2.706-7.89m-.078 9.343l3.043-8.88m-.417 10.33l3.38-9.865m-2.685 10.247l3.47-10.125M144.172 125.156m-2.57 1.547l.687.79m-3.26.76l1.372 1.57m-3.94-.022l2.058 2.36m-4.625-.812l2.738 3.144m-5.31-1.594l3.427 3.93m-5.996-2.383l4.113 4.72m-6.683-3.17l4.796 5.5m-7.367-3.952l5.485 6.29m-8.05-4.743l6.163 7.074m-8.733-5.523l6.85 7.86m-7.53-7.45l7.03 8.067" stroke="#000" stroke-miterlimit="10" fill="none"/><path d="M144.172 125.156l28.687 9.832" stroke-width="1.2" stroke="#000" stroke-miterlimit="10" fill="none"/><path d="M138.344 95.395l2.914 14.882" stroke-width="1.2" stroke="#00f" stroke-miterlimit="10" fill="none"/><path d="M141.258 110.277l2.914 14.88M172.86 134.988l22.86-19.925M179.832 138.375l18.29-15.94M178.688 164.75l-5.83-29.762M195.72 115.063L189.89 85.3M195.72 115.063l28.686 9.832M189.89 85.3l-28.687-9.83M161.203 75.47l-11.43 9.96" stroke-width="1.2" stroke="#000" stroke-miterlimit="10" fill="none"/><path d="M149.773 85.43l-11.43 9.965M138.344 95.395L124 90.48" stroke-width="1.2" stroke="#00f" stroke-miterlimit="10" fill="none"/><path d="M124 90.48l-14.344-4.918" stroke-width="1.2" stroke="#000" stroke-miterlimit="10" fill="none"/><path d="M134.344 88.395h9v14h-9zm0 0" fill="#fff"/><use xlink:href="#c" x="134.344" y="99.533" fill="#00f"/><path d="M224.406 124.895l5.828 29.757M217.984 129.242l4.664 23.81M230.234 154.652l-22.86 19.93M230.234 154.652l14.344 4.918" stroke-width="1.2" stroke="#000" stroke-miterlimit="10" fill="none"/><path d="M244.578 159.57l14.344 4.914" stroke-width="1.2" stroke="#f00" stroke-miterlimit="10" fill="none"/><path d="M207.375 174.582l-28.688-9.832M206.82 166.848l-22.95-7.868" stroke-width="1.2" stroke="#000" stroke-miterlimit="10" fill="none"/><path d="M258.922 164.484l2.914 14.883" stroke-width="1.2" stroke="#f00" stroke-miterlimit="10" fill="none"/><path d="M261.836 179.367l2.914 14.88" stroke-width="1.2" stroke="#000" stroke-miterlimit="10" fill="none"/><path d="M253.922 157.484h10v14h-10zm0 0" fill="#fff"/><use xlink:href="#b" x="253.922" y="168.623" fill="#f00"/></g></svg>
